X: 77
M: C|
L: 1/8
K: A
e |\
a2ec fdec | (bB)(Bc) edcB |\
[AA](AGA) (FA)(EA) | BcdB c2(AE) |
|: E |\
[AA](AGA) (FA)(EA) | BcdB c2(AE) |

